!!!!SEGMENT: pl-wtm--r-1347_stefani-jozef--marsz-zalobny.krn
!!!cenid: 18xx:1849
!!!COM: Stefani, Józef
!!!COM-rismid: pe30024097
!!!CDT: 1800/04/16-1876/03/19
!!!CNT: Polish
!!!OTL: Marsz żałobny
!!!PDT:
!!!AGN: Secular; March
!!!SMS-siglum: PL-Wtm
!!!SMS-shelfmark: R 1347
!!!SMS-shelfwork: W
!!!SMS-variant:
!!!SMS-altvar:
!!!NIFC-rismid: 1001119399
!!!URL-scan: http://repozytorium.nifc.pl/skany/pl-wtm-nut--r1347
!!!ONB-nifc: UWAGA: Allegro furioso + Marcia razem
**kern	**kern	**dynam
*part2	*part1	*part1
*staff2	*staff1	*
*Ipiano	*Ipiano	*
*I"[Piano]	*I"[Piano]	*
*I'[pf]	*I'[pf]	*
*clefF4	*clefG2	*
*k[b-e-]	*k[b-e-]	*
*b-:	*b-:	*
*M4/4	*M4/4	*
*met(c)	*met(c)	*
*>[A,B,B,C,C,D,D,E,E,F]	*>[A,B,B,C,C,D,D,E,E,F]	*
=1	=1	=1
*>A	*>A	*>A
*2\right	*2\right	*
!	!LO:TX:i:a:t=Allegro Furioso.	!LO:DY:b:rj
!	!LO:TX:a:t=P:problem:all\right	!
4.F 4.FF/	4.ff 4.f/	f
16FLL 16FF/	16ffLL 16f/	.
16FJJ 16FF/	16ffJJ 16f/	.
*tremolo	*tremolo	*
8FL 8FF/	8ffL 8f/	.
8F 8FF/	8ff 8f/	.
8F 8FF/	8ff 8f/	.
8FJ 8FF/	8ffJ 8f/	.
=2	=2	=2
!LO:TX:a:t=P:problem:kaudy półnut z prawej strony	!LO:TX:a:t=P:problem:kaudy półnut z prawej strony	!
32d-XLLL 32B- 32F\	(>32bb-LLL 32ff\	.
32f\	32dd-X\	.
32d- 32B- 32F\	32bb- 32ff\	.
32f\	32dd-\	.
32d- 32B- 32F\	32bb- 32ff\	.
32f\	32dd-\	.
32d- 32B- 32F\	32bb- 32ff\	.
32f\	32dd-\	.
32d- 32B- 32F\	32bb- 32ff\	.
32f\	32dd-\	.
32d- 32B- 32F\	32bb- 32ff\	.
32f\	32dd-\	.
32d- 32B- 32F\	32bb- 32ff\	.
32f\	32dd-\	.
32d- 32B- 32F\	32bb- 32ff\	.
32f\JJJ	32dd-X\JJJ	.
*rep	*rep	*
!LO:TX:a:t=P:problem:znak repetycji: trzy ukośne kreski	!LO:TX:a:t=P:problem:znak repetycji: trzy ukośne kreski	!
32d-LLL 32B- 32F\	32bb-LLL 32ff\	.
32f\	32dd-X\	.
32d- 32B- 32F\	32bb- 32ff\	.
32f\	32dd-\	.
32d- 32B- 32F\	32bb- 32ff\	.
32f\	32dd-\	.
32d- 32B- 32F\	32bb- 32ff\	.
32f\	32dd-\	.
32d- 32B- 32F\	32bb- 32ff\	.
32f\	32dd-\	.
32d- 32B- 32F\	32bb- 32ff\	.
32f\	32dd-\	.
32d- 32B- 32F\	32bb- 32ff\	.
32f\	32dd-\	.
32d- 32B- 32F\	32bb- 32ff\	.
32f\JJJ	32dd-X\JJJ	.
*Xrep	*Xrep	*
*Xtremolo	*Xtremolo	*
=3	=3	=3
4c 4A 4F\	4aa 4ff 4cc\)	.
8r	8r	.
16FLL 16FF/	16ffLL 16f/	.
16FJJ 16FF/	16ffJJ 16f/	.
*tremolo	*tremolo	*
8FL 8FF/	8ffL 8f/	.
8F 8FF/	8ff 8f/	.
8F 8FF/	8ff 8f/	.
8FJ 8FF/	8ffJ 8f/	.
!!LO:LB:g=original
=4	=4	=4
!LO:TX:a:t=P:problem:kaudy półnut z prawej strony	!LO:TX:a:t=P:problem:kaudy półnut z prawej strony	!
32d-XLLL 32B- 32F\	(>32bb-LLL 32ff\	.
32f\	32dd-X\	.
32d- 32B- 32F\	32bb- 32ff\	.
32f\	32dd-\	.
32d- 32B- 32F\	32bb- 32ff\	.
32f\	32dd-\	.
32d- 32B- 32F\	32bb- 32ff\	.
32f\	32dd-\	.
32d- 32B- 32F\	32bb- 32ff\	.
32f\	32dd-\	.
32d- 32B- 32F\	32bb- 32ff\	.
32f\	32dd-\	.
32d- 32B- 32F\	32bb- 32ff\	.
32f\	32dd-\	.
32d- 32B- 32F\	32bb- 32ff\	.
32f\JJJ	32dd-X\JJJ	.
*rep	*rep	*
!LO:TX:a:t=P:problem:znak repetycji: trzy ukośne kreski	!LO:TX:a:t=P:problem:znak repetycji: trzy ukośne kreski	!
32d-LLL 32B- 32F\	32bb-LLL 32ff\	.
32f\	32dd-X\	.
32d- 32B- 32F\	32bb- 32ff\	.
32f\	32dd-\	.
32d- 32B- 32F\	32bb- 32ff\	.
32f\	32dd-\	.
32d- 32B- 32F\	32bb- 32ff\	.
32f\	32dd-\	.
32d- 32B- 32F\	32bb- 32ff\	.
32f\	32dd-\	.
32d- 32B- 32F\	32bb- 32ff\	.
32f\	32dd-\	.
32d- 32B- 32F\	32bb- 32ff\	.
32f\	32dd-\	.
32d- 32B- 32F\	32bb- 32ff\	.
32f\JJJ	32dd-X\JJJ	.
*Xrep	*Xrep	*
*Xtremolo	*Xtremolo	*
=5	=5	=5
4c 4A 4F\	8aaL 8ff 8cc\)	.
.	(>16a\L	.
.	16b-\JJ	.
4r	16bn\LL	.
.	16cc\	.
.	16cc#X\	.
.	16dd\JJ	.
4c 4A 4F\	8ee-\L)	.
!	!LO:SIC:v:s=ccn	!
.	(>16cc#\L	.
.	16cc#X\JJ	.
4r	16dd\LL	.
.	16ee-\	.
.	16een\	.
.	16ff\JJ	.
=6	=6	=6
4e- 4c 4A 4F\	8gg-X\L)	.
.	(>16a\L	.
.	16b-\JJ	.
4r	16bn\LL	.
.	16cc\	.
.	16cc#X\	.
.	16dd\JJ	.
4c 4A 4F\	8ee-\L)	.
!	!LO:TX:a:t=P:problem:brak zakończenia łuku	!
!	!LO:SIC:v:s=ccn	!
.	(>16cc#\L	.
.	16cc#X\JJ	.
4r	16dd\LL	.
.	16ee-\	.
.	16een\	.
.	16ff\JJ	.
!!LO:LB:g=original
=7	=7	=7
4e- 4c 4A 4F\	8gg-X\L)	.
.	(>16cc\L	.
.	16cc#X\JJ	.
4r	16dd\LL	.
.	16ee-\	.
.	16een\	.
.	16ff\JJ	.
4e- 4c 4A 4F\	8gg-\L)	.
!	!LO:SIC:v:s=ccn	!
.	(>16cc#\L	.
.	16cc#X\JJ	.
4r	16dd\LL	.
!	!LO:SIC:v:s=een	!
.	16ee\	.
.	16een\	.
.	16ff\JJ	.
=8	=8	=8
!	!LO:TX:i:a:t=Lamentuoso Adagio	!
4e- 4c 4A 4F\	8gg-X\)	.
.	4gg-^< 4ee-\	.
4d-X 4B-\	.	.
.	4ff^< 4dd-X\	.
4e- 4c\	.	.
.	4ee-^< 4cc\	.
4f 4d-X\	.	.
.	8dd-X 8b-\	.
=9	=9	=9
8g-X 8e-\	8cc 8a/	.
8r	8r	.
2g- 2e-\	2cc^< 2a/	.
4gn 4en\	4b-/	.
=	=	=
*	*	*^
[>4.f\	(>4.a/	.	.
8f] 8F\	8cc 8a/)	.	.
!	!LO:TX:b:t=P:problem:napis "attacca Marcia" za kreską	!	!
!	!LO:TX:i:b:t=attacca\nMarcia	!LO:DY:b:rj	!LO:DY:b=2:rj
4f 4c 4F\	4fff 4aa 4ff\	f	f
*	*	*v	*v
!!LO:PB:g=original
=10||	=10||	=10||
*>B	*>B	*>B
*k[b-e-a-d-g-]	*k[b-e-a-d-g-]	*
*M4/4	*M4/4	*
*met(c)	*met(c)	*
!	!LO:TX:i:a:t=Ku pamięci poległych dnia 27.\nLutego 1861 roku	!
!	!LO:TX:i:a:t=Marsz żałobny	!
!	!LO:TX:i:a:t=Adagio maestoso.	!
8.F\L	8.f/L	.
16F\Jk	16f/Jk	.
=11	=11	=11
4BB-/	4b-\	.
8.F\L	8.f/L	.
16F\Jk	16f/Jk	.
4BB-/	4b-\	.
8.F\L	8.f/L	.
16E-\Jk	16an/Jk	.
=12	=12	=12
4D-\	4b- 4f\	.
8.AAn/L	8.ccL 8.f\	.
16AA/Jk	16ccJk 16f\	.
4BB-/	4dd-\ 4b-\ 4f\	.
4r	8.f/L	.
.	16f/Jk	.
=13	=13	=13
4d- 4B-\	4b-/	.
4e- 4c\	8.a-/L	.
.	16g-/Jk	.
4d-\	4f/	.
8.F\L	8.f/L	.
16E-\Jk	16an/Jk	.
!!LO:LB:g=original
=14	=14	=14
4D-/	4b- 4f\	.
8.AAn/L	8.ccL 8.f\	.
16AA/Jk	16ccJk 16f\	.
4BB-/	4dd- 4b- 4f\	.
4r	8.ff\L	.
.	16ff\Jk	.
=15	=15	=15
*^	*	*
4r	2E-\	(>8ff\L	.
.	.	8gg-\	.
4c 4G-/	.	8.ee-\)	.
.	.	16cc\Jk|	.
4d- 4B- 4F\	2rAAAyy	4b-\	.
8.cL 8.An 8.F\	.	8.ccL 8.f/	.
16cJk 16A 16F\	.	16ccJk 16f/	.
*v	*v	*	*
=16	=16	=16
4d- 4B-\	4dd-\ 4b-\ 4f\	.
8.G-L 8.GG-/	8.ee-L 8.b-\	.
16G-Jk 16GG-/	16ee-Jk 16b-\	.
4F 4FF/	4ff 4an\	.
4r	8.ff\L	.
.	16ff\Jk	.
=17	=17	=17
*^	*	*
4r	2E-\	(>8ff\L	.
.	.	8gg-\)	.
4c 4G-/	.	8.ee-\|	.
.	.	16cc\Jk|	.
4d- 4B- 4F\	2rAAAyy	4b-\	.
8.e-L 8.c 8.F\	.	8.an\L	.
16e-Jk 16c 16F\	.	16a\Jk	.
*v	*v	*	*
=18	=18	=18
4d- 4B-\	4b-\	.
8.B-L 8.BB-\	8.bb-L 8.dd- 8.b-\	f
16B-Jk 16BB-\	16bb-Jk 16dd- 16b-\	.
4B- 4BB-\	4bb- 4dd- 4b-\	.
!!LO:LB:g=original
=:|!|:	=:|!|:	=:|!|:
*>C	*>C	*>C
4r	8.a-/L	.
.	16a-/Jk	.
=19	=19	=19
!	!	!LO:DY:b:rj
4d- 4D-\	4dd-\ 4a-\ 4f\	p
8.cL 8.C\	8.ee-L 8.a-\	.
16cJk 16C\	16ee-Jk 16a-\	.
4d- 4D-\	4ff 4a-\	.
4r	8.a-/L	.
.	16a-/J	.
=20	=20	=20
4c 4C\	4ee- 4a-\	.
8.d-L 8.D-\	8.ffL 8.dd- 8.a-\	.
16d-Jk 16D-\	16ffJk 16dd- 16a-\	.
4e- 4E-\	4gg- 4cc 4a-\	.
4r	8.a-/L	.
.	16a-/Jk	.
=21	=21	=21
!	!	!LO:DY:b:rj
4F 4FF/	4aa- 4dd- 4a-\	f
8.G-L 8.GG-/	8.gg-L 8.ee- 8.b-\	.
16G-Jk 16GG-/	16gg-Jk 16ee- 16b-\	.
4A- 4AA-/	4ff 4dd- 4a-\	.
8.AnL 8.AAn/	8.ee-L 8.cc 8.f\	.
16AJk 16AA/	16ee-Jk 16cc 16f\	.
=22	=22	=22
4B- 4BB-\	4dd- 4b- 4f/	.
8.FL 8.FF/	8.ccL 8.an/	.
16FJk 16FF/	16ccJk 16a/	.
4G- 4GG-/	4b-/	.
8.cL 8.G- 8.E-\	8.cc/L	p
16cJk 16G- 16E-\	16g-/Jk	.
=23	=23	=23
4d- 4B- 4F\	4f/	.
4r	8.b-/L	.
.	16cc/Jk	.
4d- 4B- 4F\	4dd-\	.
4e- 4c 4F\	4ant>/	.
!!LO:LB:g=original
=24	=24	=24
4d- 4B-\	4b-\	.
!	!	!LO:DY:b:rj
8.cL 8.F\	8.ccL 8.an 8.f/	f
16cJk 16F\	16ccJk 16a 16f/	.
4d- 4B-\	4dd- 4b- 4f/	.
8.cL 8.G- 8.E-\	8.cc/L	p
16cJk 16G- 16E-\	16g-/Jk	.
=25	=25	=25
4d- 4B- 4F\	4f/	.
4r	8.b-\L	.
.	16cc\Jk	.
4d- 4B- 4F\	4dd-\	.
4e- 4c 4F\	4ant>/	.
=26	=26	=26
4d- 4B-\	4b-\	.
!	!	!LO:DY:b:rj
8.B-L 8.BB-\	8.bb-L 8.dd- 8.b-\	f
16B-Jk 16BB-\	16bb-Jk 16dd- 16b-\	.
4B- 4BB-\	4bb- 4dd- 4b-\	.
*kcancel	*kcancel	*
=:|!|:	=:|!|:	=:|!|:
*>D	*>D	*>D
*k[b-e-]	*k[b-e-]	*
!LO:TX:t=P:problem:kolejność znaków AAn Dn GGn BB- E-	!LO:TX:t=P:problem:kolejność znaków an ddn gn b- ee-	!LO:DY:b:rj
8.FL 8.FF/	8.ffL 8.f\	ff
16FJk 16FF/	16ffJk 16f\	.
=27	=27	=27
*	*tremolo	*
8.BB-L 8.BBB-/	(<32ddLLL 32b-/	.
.	32f/	.
.	32dd 32b-/	.
.	32f/	.
.	32dd 32b-/	.
.	32f/	.
16BB-K 16BBB-/	32dd 32b-/	.
.	32f/	.
8.D 8.DD/	32dd 32b-/	.
.	32f/	.
.	32dd 32b-/	.
.	32f/	.
.	32dd 32b-/	.
.	32f/	.
16FJk 16FF/	32dd 32b-/	.
.	32f/JJJ	.
*	*Xtremolo	*
8.B-L 8.BB-\	8.b-L 8.f 8.d/)	.
16B-K 16BB-\	16fK 16d/	.
8.F 8.FF\	8.b- 8.f 8.d/	.
16DJk 16DD\	16ddJk 16b- 16f/	.
!!LO:LB:g=original
=28	=28	=28
*	*tremolo	*
!	!LO:TX:a:t=P:problem:kaudy półnut z prawej strony	!
8.BB-L 8.BBB-/	(>32ffLLL 32dd 32b-\	.
.	32f\	.
.	32ff 32dd 32b-\	.
.	32f\	.
.	32ff 32dd 32b-\	.
.	32f\	.
16BB-K 16BBB-/	32ff 32dd 32b-\	.
.	32f\	.
8.D 8.DD/	32ff 32dd 32b-\	.
.	32f\	.
.	32ff 32dd 32b-\	.
.	32f\	.
.	32ff 32dd 32b-\	.
.	32f\	.
16FJk 16FF/	32ff 32dd 32b-\	.
.	32f\JJJ	.
*	*Xtremolo	*
4B- 4BB-\	4dd 4b- 4f\)	.
4r	8.b-\L	.
.	16b-\Jk	.
=29	=29	=29
*	*^	*
4E- 4EE-/	4gg 4ee- 4b- 4g\	2rDyy	.
8.DL 8.DD/	8.ffL 8.b- 8.f\	.	.
16DJk 16DD/	16ffJk 16b- 16f\	.	.
4C 4CC/	4ee- 4cc/	8g\L	.
.	.	8a\J	.
4BB- 4BBB-/	4dd/	4b-\	.
=30	=30	=30	=30
8.FL 8.FF/	4cc/	4a\	.
16FK 16FF/	.	.	.
8.C 8.CC/	8.ffL 8.a 8.f\	4rAyy	.
16AAJk 16AAA/	16ffJk 16a 16f\	.	.
4FF 4FFF/	4ff 4a 4f\	2rAyy	.
8.FL 8.FF/	8.ffL 8.f\	.	.
16FJk 16FF/	16ffJk 16f\	.	.
*	*v	*v	*
!!LO:LB:g=original
=31	=31	=31
*	*tremolo	*
8.BB-L 8.BBB-/	(<32ddLLL 32b-/	.
.	32f/	.
.	32dd 32b-/	.
.	32f/	.
.	32dd 32b-/	.
.	32f/	.
16BB-K 16BBB-/	32dd 32b-/	.
.	32f/	.
8.D 8.DD/	32dd 32b-/	.
.	32f/	.
.	32dd 32b-/	.
.	32f/	.
.	32dd 32b-/	.
.	32f/	.
16FJk 16FF/	32dd 32b-/	.
.	32f/JJJ)	.
8.B-L 8.BB-/	8.b-L 8.f 8.d/	.
16B-Jk 16BB-/	16fK 16d/	.
8.FL 8.FF/	8.b- 8.f 8.d/	.
16DJk 16DD/	16ddJk 16b- 16f/	.
=32	=32	=32
!	!LO:TX:a:t=P:problem:kaudy półnut z prawej strony	!
8.BB-L 8.BBB-/	(>32ffLLL 32dd 32b-\	.
.	32f\	.
.	32ff 32dd 32b-\	.
.	32f\	.
.	32ff 32dd 32b-\	.
.	32f\	.
16BB-K 16BBB-/	32ff 32dd 32b-\	.
.	32f\	.
8.D 8.DD/	32ff 32dd 32b-\	.
.	32f\	.
.	32ff 32dd 32b-\	.
.	32f\	.
.	32ff 32dd 32b-\	.
.	32f\	.
16FJk 16FF/	32ff 32dd 32b-\	.
.	32f\JJJ)	.
*	*Xtremolo	*
4B- 4BB-\	4dd 4b- 4f/	.
4r	8.b-\L	.
.	16b-\Jk	.
=33	=33	=33
4G-X 4GG-X\	4bb- 4b-\	.
8.G-L 8.GG-\	8.b-\L	.
16G-Jk 16GG-\	16ccJk 16b-\	.
4G- 4GG-\	4dd 4b-\	.
4G- 4GG-\	4ee- 4b-\	.
=34	=34	=34
8.FL 8.FF/	4ff 4a\	.
16FK 16FF/	.	.
8.C 8.CC/	8.ffL 8.a 8.f\	.
16AAJk 16AAA/	16ffJk 16a 16f\	.
4FF 4FFF/	4ff 4a 4f\	.
!!LO:PB:g=original
=:|!|:	=:|!|:	=:|!|:
*>E	*>E	*>E
*k[b-e-]	*k[b-e-]	*
!	!	!LO:DY:b:rj
8.f\L	8.ff\L	p
16f\Jk	16ff\Jk	.
=35	=35	=35
*	*^	*
4e-\	(>4gg-X^< 4b-\	2rFyy	.
8.d-X\L	8.ffL 8.b-\)	.	.
16d-\Jk	16ffJk| 16b-\	.	.
!	!	!LO:N:vis=4	!
4c\	(>8ff/L	8a\	.
!	!	!LO:N:vis=4	!
.	8ee-/J	8ee-\	.
8.B-\L	8.dd-XL 8.b-\)	4rFyy	.
16B-\Jk	16dd-Jk 16b-\	.	.
=36	=36	=36	=36
4A\	4cc [>4f\	4rFyy	.
8.G-X\L	8.b-/L	8.f\L]	.
16G-\Jk	16b-/Jk	16en\Jk	.
!	!	!	!LO:DY:b:rj
4F\	4an/	4f\	f
8.FL 8.FF/	8.ffL 8.f\	4rFyy	.
16FJk 16FF/	16ffJk 16f\	.	.
*	*v	*v	*
=37	=37	=37
4.G-X 4.GG-X/	4.bb- 4.b-\	.
8d-X 8B- 8G-\	16bb-LL 16b-\	.
.	16cccJJ 16cc\	.
4d- 4B- 4G-\	4ddd-X 4dd-X\	.
4c 4B- 4G-\	4een 4en/	.
!!LO:LB:g=original
=38	=38	=38
4c 4A 4F\	4ff 4f\	.
8.FL 8.FF/	8.ffL 8.a 8.f/	.
16FJk 16FF/	16ffJk 16a 16f/	.
4F 4FF/	4ff 4a 4f/	.
8.FL 8.FF/	8.ffL 8.f\	.
16FJk 16FF/	16ffJk 16f\	.
=39	=39	=39
*	*tremolo	*
!	!	!LO:DY:b:t=ffo
8.BB-L 8.BBB-/	(<32ddLLL 32b-/	ff
.	32f/	.
.	32dd 32b-/	.
.	32f/	.
.	32dd 32b-/	.
.	32f/	.
16BB-K 16BBB-/	32dd 32b-/	.
.	32f/	.
8.D 8.DD/	32dd 32b-/	.
.	32f/	.
.	32dd 32b-/	.
.	32f/	.
.	32dd 32b-/	.
.	32f/	.
16FJk 16FF/	32dd 32b-/	.
.	32f/JJJ)	.
4B- 4BB-\	4b- 4f 4d/	.
8.FL 8.FF/	8.ffL 8.f\	.
16FJk 16FF/	16ffJk 16f\	.
=40	=40	=40
!	!LO:TX:a:t=P:problem:kaudy półnut z prawej strony	!
8.BB-L 8.BBB-/	(>32ffLLL 32dd 32b-\	.
.	32f\	.
.	32ff 32dd 32b-\	.
.	32f\	.
.	32ff 32dd 32b-\	.
.	32f\	.
16BB-K 16BBB-/	32ff 32dd 32b-\	.
.	32f\	.
8.D 8.DD/	32ff 32dd 32b-\	.
.	32f\	.
.	32ff 32dd 32b-\	.
.	32f\	.
.	32ff 32dd 32b-\	.
.	32f\	.
16FJk 16FF/	32ff 32dd 32b-\	.
.	32f\JJJ)	.
*	*Xtremolo	*
4B- 4BB-\	4dd 4b- 4f/	.
8.E-L 8.EE-/	8.ccL 8.g/	.
16E-Jk 16EE-/	16gg-XJk 16cc 16g-X/	.
!!LO:LB:g=original
=41	=41	=41
!	!	!LO:DY:b:rj
4F 4FF/	4ff 4dd 4b- 4f/	p
8.FL 8.FF/	8.ddL 8.b- 8.f/	.
16FJk 16FF/	16ddJk 16b- 16f/	.
4F 4FF/	4cc 4b- 4f/	.
4F 4FF/	4ff 4a 4f/	.
=42	=42	=42
8.B-\L 8.BB-\	4b- 4f 4d/	.
16B-\K 16BB-\	.	.
!	!	!LO:DY:b:rj
8.F\ 8.FF\	8.bb-L 8.dd 8.b-\	f
16D\Jk 16DD\	16bb-Jk 16dd 16b-\	.
4BB- 4BBB-/	4bb- 4dd 4b-\	.
=:|!	=:|!	=:|!
*>F	*>F	*>F
!	!	!LO:DY:b:rj
4r	8.bb-L 8.b-'>\	p
.	16bb-Jk 16b-'>\	.
=43	=43	=43
*clefG2	*	*
*^	*	*
(>2g-X 2e-/	1B-	4bb- 4b-'>\	.
.	.	8.bb-L 8.b-'>\	.
.	.	16bb-Jk 16b-'>\	.
4f 4d/	.	4bb- 4b-'>\	.
4en 4c#X/)	.	8.bb-L 8.b-'>\	.
.	.	16bb-Jk 16b-'>\	.
*v	*v	*	*
!!LO:LB:g=original
=44	=44	=44
2.f 2.d 2.B-/	4bb- 4b-\	.
.	8.bb-L 8.b-\	.
.	16bb-Jk 16b-\	.
.	4bb- 4b-\	.
!	!	!LO:DY:b:rj
4r	8.b-L 8.B-/	pp
.	16b-Jk 16B-/	.
=45	=45	=45
*clefF4	*	*
*^	*	*
(>2G-X 2E-/	1BB-	4b- 4B-/	.
.	.	8.b-L 8.B-/	.
.	.	16b-Jk 16B-/	.
4F 4D/	.	4b- 4B-/	.
4En 4C#X/)	.	8.b-L 8.B-/	.
.	.	16b-Jk 16B-/	.
=46	=46	=46	=46
4F 4D/	4BB-\	4b- 4B-/	.
4r	4rCCyy	8r	.
.	.	(<16f/LL	.
.	.	16b-/JJ	.
4B-\	2rAAAyy	4dd\)	.
4d\	.	4ff 4b-\	.
!!LO:LB:g=original
=47	=47	=47	=47
*	*	*^	*
[>2.f\	2rAAAyy	(>2.cc/	4b-\	.
.	.	.	8a\L	.
.	.	.	8g\J	.
.	4rAAAyy	.	2a\	.
4f/]	4F\	4ff/)	.	.
*v	*v	*	*	*
=48	=48	=48	=48
4f 4B-\	4dd/	4b-\	.
4r	8r	4rAyy	.
.	(>16ff\LL	.	.
.	16bb-\JJ)	.	.
*clefG2	*	*	*
4b-\	4ddd\	2rAyy	.
4dd\	4fff [>4bb-\	.	.
=49	=49	=49	=49
[>2.ff\	2.ccc/	4bb-\]	.
!	!	!LO:TX:a:t=P:problem:niejednoznaczny zapis łuku	!
.	.	(>8aa\L	.
.	.	8gg\J)	.
.	.	2aa\	.
4ff] 4f\	4fff/	.	.
=50	=50	=50	=50
4b-\	4bb-/	4bb-\	.
4r	4r	4rFyy	.
!	!LO:TX:t=P:problem:przekreślony takt po tym takcie	!	!
2r	2r	2rFyy	.
*	*v	*v	*
!LO:CL:ed	!	!
!!LO:LB:g=original
=51	=51	=51
*clefF4	*8va	*
*	*tremolo	*
!LO:TX:t=P:problem:brak klucza basowego	!	!LO:DY:b:t=ffo:rj
4.BB- 4.BBB-/	(>32eee-LLL 32bb-/	ff
.	32gg-X/	.
.	32eee- 32bb-/	.
.	32gg-/	.
.	32eee- 32bb-/	.
.	32gg-/	.
.	32eee- 32bb-/	.
.	32gg-/	.
.	32eee- 32bb-/	.
.	32gg-/	.
.	32eee- 32bb-/	.
.	32gg-/	.
8BB- 8BBB-/	32eee- 32bb-/	.
.	32gg-/	.
.	32eee- 32bb-/	.
.	32gg-X/JJJ	.
4E- 4EE-/	32eee-LLL 32bb-/	.
.	32gg-/	.
.	32eee- 32bb-/	.
.	32gg-/	.
.	32eee- 32bb-/	.
.	32gg-/	.
.	32eee- 32bb-/	.
.	32gg-/	.
4G-X 4GG-X/	32eee- 32bb-/	.
.	32gg-/	.
.	32eee- 32bb-/	.
.	32gg-/	.
.	32eee- 32bb-/	.
.	32gg-/	.
.	32eee- 32bb-/	.
.	32gg-/JJJ	.
=52	=52	=52
*	*rep	*
!	!LO:TX:a:t=P:problem:znak repetycji: trzy ukośne kreski	!
4.B- 4.BB-\	32eee-LLL 32bb-/	.
.	32gg-X/	.
.	32eee- 32bb-/	.
.	32gg-/	.
.	32eee- 32bb-/	.
.	32gg-/	.
.	32eee- 32bb-/	.
.	32gg-/	.
.	32eee- 32bb-/	.
.	32gg-/	.
.	32eee- 32bb-/	.
.	32gg-/	.
8BB- 8BBB-/	32eee- 32bb-/	.
.	32gg-/	.
.	32eee- 32bb-/	.
.	32gg-X/JJJ	.
4G-X 4GG-X/	32eee-LLL 32bb-/	.
.	32gg-/	.
.	32eee- 32bb-/	.
.	32gg-/	.
.	32eee- 32bb-/	.
.	32gg-/	.
.	32eee- 32bb-/	.
.	32gg-/	.
4E- 4EE-/	32eee- 32bb-/	.
.	32gg-/	.
.	32eee- 32bb-/	.
.	32gg-/	.
.	32eee- 32bb-/	.
.	32gg-/	.
.	32eee- 32bb-/	.
.	32gg-/JJJ)	.
*	*Xrep	*
*	*Xtremolo	*
=53	=53	=53
4BB- 4BBB-/	1ddd 1bb- 1ff	.
4r	.	.
2r	.	.
*	*X8va	*
=54	=54	=54
!	!LO:TX:b:i:t=sec	!
!	!LO:TX:i:a:t=loco	!
4B- 4F 4BB-\	4bb- 4ff 4dd 4b-\	.
4r	4r	.
2r	2r	.
==	==	==
*-	*-	*-
!!!system-decoration: [(s1,s2)]
!!!RDF**kern: > = above
!!!RDF**kern: < = below
!!!RDF**kern: | = vertical stroke
!!!EED: Antoni Szymański
!!!EST: 2021-05-04
!!!ENC: Marcin Jachim
!!!END: 2021-04-10
